X: 16
T: Christmas Eve
C: Tommy Coen
Z: CRMWilson
S: https://thesession.org/tunes/440#setting48171
R: reel
M: 4/4
L: 1/8
K: Gmin
K:Dbmaj
B,|:A,F,A,B, D3 E|F2 AF EFDE|FEDB, A,F,A,B,|DEFD EFDB,|
A,F,A,B, D3 E|F2 AF EFDE|FEDB, DBAF|EFDB, D3:|
E|:FEFA BABd|fedB d2 Bd|efeB dedB|AFdF E2 DE|
FEFA BABd|fedB d2 Bd|eBdB AFEF|1 EFDB, D3:|2 EFDB, DEAG||
|:!>!FD!>!CD !>!A,D!>!CD|Bdcd BdAG|!>!FD!>!CD !>!A,D!>!CD|!>!EDFE !>!B,D!>!CD|
!>!FD!>!CD !>!A,D!>!CD|Bdcd Bcde|(3fed ed BdAF|EFDB, D4:|

